X:1
T: Lennox Love to Blantyre
C:
R:Reel
Q: 232
K:F
M:4/4
L:1/8
|:A|F2 FG AG FA|G1/2G1/2G Bc dc de|fg fd cA FA|BG AF D1/2D1/2D DA|
F2 FG AG FA|G1/2G1/2G Bc dc de|fg fd cA FA|BG AF D1/2D1/2D Df|
cd fg ag fa|gf ga gf df|cd fg ag fa|gf ba g2 fd|
cd fg ag fa|gf ga gf df|cf af gf af|gf ba g2 f:|
